!!!COM: Robert Franz
!!!CNT: Deutscher
!!!TXO: Deutsche 
!!!OTL: Das macht das dunkelgrune Laub
!!!OPS: Op. 20
!!!ONM: No. 5
!!!ONB: Original key: D Major
!!!LYR: O. Roquette
!!!ENC: Brian Bice
!!!YOR: Vocal Album, G. Schirmer, Inc., 1907
!!!ODT: 1865/
!!NB: Vocal melody and text only encoded.
**kern	**silbe
*clefG2	*
*k[f#c#g#d#a#]	*
*M2/4	*
=0	=0
4.r	.
{16B	{Das
16c#	|
=1	=1
8d#	macht
8f#	das
8b	dun-
8cc#	-kel
=2	=2
8.dd#	gru2-
16cc#	-ne
8b}	Laub,}
{16a#	{dass
16g#	der
=3	=3
8f#	Wald
8g#	so
8e	schat-
8f#	-tig
=4	=4
4d#}	ist;}
8r	.
{(16B	{das
16c#)	|
=5	=5
8d#	macht
8f#	die
8b	lie-
8cc#	-be
=6	=6
8.dd#	Mai-
16cc#	-en-
8b}	-zeit,}
{16a#	{dass
16g#	so
=7	=7
8cc#	roth
8f#	das
(8b	Ro2s-
16a#)	|
16g#	-lein
=8	=8
4f#}	ist.}
8r	.
{16e	{Mei-
16d#	-nes
=9	=9
16c#	Schat-
16d#	-zes
8e	Leib'
8f#	war
8c#	das
=10	=10
(16e	Ro2s-
16d#)	|
(16c#	-lein
16d#)	|
8e}	roth,}
{(16e	{das
16g#)	|
=11	=11
8b	blu2ht'
8an	am
(16g#	Wal-
16f#)	|
(16e	-des-
16f#)	|
=12	=12
4g#}	-rain,}
8r	.
{16g#	{und
16a#	das
=13	=13
8b	gru2-
8cc#	-ne
8dd#}	Laub,}
{16g#	{und
16a#	das
=14	=14
8b	gru2-
8cc#	-ne
8dd#}	Laub,}
{8g#	{wie
=15	=15
8ee	all
16dd#	die
16cc#	Ge-
8b	-dan-
8a#	-ken
=16	=16
4g#}	mien.}
4r	.
=17	=17
{8d#	{Nun
16f#	ging
16f#	die
8b	lie-
8cc#	-be
=18	=18
8.dd#	Mai-
16cc#	-en-
8b}	-zeit}
{16a#	{und
16g#	die
=19	=19
8f#	scho2-
8g#	-ne
16e	Lie-
16e	-be
8f#	zur
=20	=20
4d#}	Ruh'}
4r	.
=21	=21
{8d#	{nun
24f#	fal-
24f#	-len
24f#	die
8b	Bla2tt-
8cc#	-lein
=22	=22
8.dd#	all'
16cc#	her-
8b}	-ab}
{8a#	{und
=23	=23
16g#	de-
16a#	-cken
8b	das
(16a#	Ro2s-
16b	|
16cc#)	|
16f##	-lein
=24	=24
4g#}	zu.}
8r	.
*-	*-
